X: 32138
T: Peter McArdle's
R: polka
M: 2/4
K: Adorian
|:g>f ga|d/e/d/c/ Ae/f/|gg/f/ ga|d2 d2|
g>f ga|d/e/d/c/ AA/B/|cc B/A/G|A2 A2:|
|:G/A/B/A/ BG|G/A/B/A/ BG|g>f ga|d2 d2|
G/A/B/A/ BG|G/A/B/A/ BG|g>f ga|d2 d2:|

